icons/gear.svg

<svg width="14" height="14" viewBox="0 0 14 14" fill="none" xmlns="http://www.w3.org/2000/svg">
<path d="M7.91666 2.41667C7.91666 1.91041 7.50626 1.5 6.99999 1.5C6.49373 1.5 6.08333 1.91041 6.08333 2.41667C6.08333 2.9839 5.78071 3.50805 5.28947 3.79167L5.07676 3.91448C4.58552 4.19809 3.98028 4.19809 3.48904 3.91448C3.05061 3.66135 2.48999 3.81157 2.23685 4.25C1.98372 4.68844 2.13394 5.24906 2.57238 5.50219C3.06362 5.78581 3.36623 6.30996 3.36623 6.87719V7.12281C3.36623 7.69004 3.06362 8.21419 2.57238 8.49781C2.13394 8.75094 1.98372 9.31156 2.23685 9.75C2.48999 10.1884 3.05061 10.3387 3.48904 10.0855C3.98028 9.80191 4.58552 9.80191 5.07676 10.0855L5.28947 10.2083C5.78071 10.492 6.08333 11.0161 6.08333 11.5833C6.08333 12.0896 6.49373 12.5 6.99999 12.5C7.50626 12.5 7.91666 12.0896 7.91666 11.5833C7.91666 11.0161 8.21928 10.492 8.71052 10.2083L8.92323 10.0855C9.41447 9.80191 10.0197 9.80191 10.5109 10.0855C10.9494 10.3387 11.51 10.1884 11.7631 9.75C12.0163 9.31157 11.866 8.75094 11.4276 8.49781C10.9364 8.21419 10.6338 7.69005 10.6338 7.12281V6.87719C10.6338 6.30995 10.9364 5.78581 11.4276 5.50219C11.866 5.24906 12.0163 4.68844 11.7631 4.25C11.51 3.81157 10.9494 3.66135 10.5109 3.91448C10.0197 4.19809 9.41447 4.19809 8.92323 3.91448L8.71052 3.79167C8.21928 3.50805 7.91666 2.9839 7.91666 2.41667Z" stroke="red"/>
<path d="M5.5 7C5.5 7.82843 6.17157 8.5 7 8.5C7.82843 8.5 8.5 7.82843 8.5 7C8.5 6.17157 7.82843 5.5 7 5.5C6.17157 5.5 5.5 6.17157 5.5 7Z" stroke="red"/>
</svg>

<svg xmlns="http://www.w3.org/2000/svg" width="14" height="14" fill="none" viewBox="0 0 14 14"><path stroke="red" d="M7.917 2.417a.917.917 0 1 0-1.834 0c0 .567-.302 1.091-.794 1.375l-.212.122a1.59 1.59 0 0 1-1.588 0 .917.917 0 0 0-.917 1.588c.492.284.794.808.794 1.375v.246c0 .567-.302 1.091-.794 1.375a.917.917 0 1 0 .917 1.588 1.59 1.59 0 0 1 1.588 0l.212.122c.492.284.794.808.794 1.375a.917.917 0 1 0 1.834 0c0-.567.302-1.091.794-1.375l.212-.123a1.59 1.59 0 0 1 1.588 0 .917.917 0 1 0 .917-1.587 1.59 1.59 0 0 1-.794-1.375v-.246c0-.567.302-1.091.794-1.375a.917.917 0 1 0-.917-1.588 1.59 1.59 0 0 1-1.588 0l-.212-.122a1.59 1.59 0 0 1-.794-1.375Z"/><path stroke="red" d="M5.5 7a1.5 1.5 0 1 0 3 0 1.5 1.5 0 0 0-3 0Z"/></svg>
